X:378
T:Auvergne Mazurka
M:3/4
L:1/8
K:D
A2 dc d2 | A2 fe f2 | gf ed cd | ed cB A2 |
A2 dc d2 | A2 fe f2 | gf ed ce |1 e2 d2 z2 :|2 e2 d2 fg ||
a2 ab ag | f2 d2 ef | g2 ga gf | e4 fg | a2 ab ag | f2 d2 ef |
gf ed ce |1 e2 d2 fg :|2 e2 d2 z2 ||
